assets/img/logo/isolant.svg

<svg fill="none" height="67" viewBox="0 0 196 67" width="196" xmlns="http://www.w3.org/2000/svg"><path d="m72.239 19.0873c-.3322 4.3593-4.2926 8.0426-8.6403 8.0426-1.9236 0-3.655-.7246-4.8685-2.0361-1.2237-1.3194-1.817-3.1197-1.6698-5.0614.3329-4.3622 4.2897-8.0455 8.6403-8.0455 1.9236 0 3.6521.7217 4.8671 2.0331 1.2243 1.3231 1.8184 3.1219 1.6712 5.0673zm123.761-14.90439h-36.851l-3.307 15.96189-6.444-15.96189h-9.88v.00218c-1.816.03046-3.322 1.31287-3.72 3.03484l-.009.00507-3.546 17.1196-4.017-20.16169h-10.924c-1.306 0-2.462.65499-3.167 1.65814l-.004.00217-13.34 18.58188c-.001.0036-.006.0036-.01.0101-.708.9959-1.8552 1.6429-3.1608 1.6429h-7.4275l3.5636-17.28563-.0124-.01015c.0349-.21543.0588-.43521.0588-.65789 0-2.17893-1.7423-3.94152-3.8951-3.94152h-5.7353l-2.7498 13.28179c-.4018-8.25806-6.956-14.65269-15.494-14.65269-9.2503 0-17.3198 7.49639-18.0292 16.74819-.7028 9.2474 6.222 16.746 15.4702 16.746 7.0177 0 13.3543-4.3194 16.3151-10.4391l-.8058 3.8682c-.1161.3801-.1836.7827-.1836 1.2005 0 2.1745 1.7423 3.9415 3.8937 3.9415h21.8541c1.299 0 2.444-.647 3.152-1.632l.007-.0037 12.158-17.0202 1.393 7.1519c-1.73.9974-4.899 4.8236-2.747 4.8236 2.168 0 3.975 1.5537 4.392 3.6245l.594 3.0559h17.225l3.456-16.6945 7.122 16.6945h8.992c1.905 0 3.486-1.3869 3.824-3.2184l3.416-16.4863c.386-1.772 1.938-3.0914 3.803-3.0914h4.212l-4.724 22.7961h7.434l.002-.0036c1.854-.0211 3.396-1.3535 3.765-3.1241l.005-.0029 4.073-19.6655h5.202v-.0036c1.859 0 3.413-1.3252 3.796-3.09291l.01-.01088z" fill="#27bcee"/><path d="m26.3474 8.82799-.0152.00943c-.3649 1.67768-1.8344 2.93618-3.6021 2.93838v.0022h-7.0213l1.4093-6.82697h10.0352zm-4.5733 22.30581-.0043.0036c-.3489 1.6806-1.8141 2.9413-3.5694 2.9652l-.0051.0065h-7.0649l4.1722-19.9368h10.0272zm13.2528 8.0803-.045-.0718c-3.3591-6.1357-5.3059-11.2733-5.3059-19.4001 0-6.5585 2.1608-11.50899 4.5682-14.99136.1132-.18642.235-.37138.3823-.56432.5759-.75218.8936-1.57182.5875-2.44731-.103-.29594-.631-.905226-1.3897-.905226h-17.8696c-1.9592 0-3.5774 1.470266-3.8487 3.377196l-12.0182013 58.02312c-.0602035.2633-.08776818.5419-.08776818.8226 0 2.1804 1.74299948 3.9437 3.89364948 3.9437.0174 0 .03409-.0029.05077-.0029v.0029h15.56875c5.8753 0 19.1353-7.8388 19.1353-16.7874.198-3.9009-2.6054-9.2605-3.6216-10.9991z" fill="#27bcee"/><g fill="#5e636a"><path d="m69.4401 50.2024-4.3905 7.7459h5.1543zm1.405 15.0153-.3627-3.7703h-7.3695l-2.1129 3.7703h-4.2258l12.4128-21.2953h3.1755l2.7106 21.2953z"/><path d="m82.8101 47.6919c-1.3143 0-2.1361-1.1061-1.8308-2.4516.3083-1.3448 1.6321-2.4234 2.9428-2.4234 1.3136 0 2.1143 1.0786 1.8075 2.4234-.3075 1.3455-1.6102 2.4516-2.9195 2.4516zm-5.8985 17.5272 3.5593-15.5854h3.7892l-3.5622 15.5854z"/><path d="m89.4286 65.3977c-2.3864 0-4.4826-.2699-5.9544-2.2421l3.0559-2.543c.9596 1.2875 2.5503 1.4673 3.7174 1.4673 1.31 0 2.7795-.4489 3.0472-1.6182.177-.7761-.1052-1.3114-1.2723-1.4325l-2.3363-.2416c-2.6794-.2662-4.0866-1.4964-3.4287-4.3658.7384-3.2278 3.9002-4.9643 6.9872-4.9643 2.3625 0 4.2469.4185 5.377 1.8257l-2.876 2.4205c-.692-.8059-1.9758-1.0452-3.2887-1.0452-1.5131 0-2.3196.718-2.4974 1.4942-.1291.5686-.0478 1.2287 1.2672 1.3455l2.332.2401c2.9326.2995 4.0728 1.9446 3.4708 4.5762-.7856 3.4366-4.0155 5.0832-7.6009 5.0832z"/><path d="m102.923 65.2199c-3.1156 0-3.9121-2.242-3.4094-4.4601l3.8504-16.8374h3.782l-3.788 16.6031c-.211.9255.058 1.4028 1.018 1.4028h1.458l-.751 3.2916z"/><path d="m116.868 58.6396h-3.002c-1.367 0-2.277.6565-2.532 1.7641-.241 1.0757.293 1.7937 1.777 1.7937 1.049 0 1.741-.0892 2.561-.7471.496-.3873.785-1.0162 1.003-1.9743zm-1.417 6.5796.306-1.3498c-1.256 1.0532-2.322 1.4992-4.069 1.4992-1.719 0-2.87-.446-3.563-1.3774-.613-.866-.768-2.1209-.454-3.4969.57-2.4835 2.695-4.5152 6.221-4.5152h3.585l.176-.7798c.389-1.7052-.257-2.4524-2.266-2.4524-1.456 0-2.208.3598-3.208 1.2868l-1.863-2.4226c1.866-1.6749 3.433-2.1536 5.969-2.1536 4.256 0 6.043 1.8547 5.212 5.501l-2.345 10.2607z"/><path d="m131.625 65.22 2.149-9.4244c.49-2.1209-.658-2.839-1.853-2.839s-2.701.7181-3.185 2.839l-2.154 9.4244h-3.786l3.558-15.5862h3.701l-.328 1.4376c1.236-1.0779 2.76-1.6139 4.157-1.6139 1.516 0 2.622.507 3.269 1.376.938 1.2548.922 2.7229.533 4.4268l-2.275 9.9597z"/><path d="m143.801 65.2183c-3.087 0-3.888-2.2421-3.382-4.4602l1.762-7.714h-1.602l.674-2.9616h1.604l1.055-4.6045h3.789l-1.056 4.6045h2.683l-.678 2.9616h-2.684l-1.704 7.4797c-.205.8951.085 1.4028.989 1.4028h1.37l-.75 3.2917z"/><path d="m159.674 54.3008c-.198-.9262-.886-1.6131-2.169-1.6131-1.282 0-2.282.6869-2.902 1.6131-.363.5644-.548.9887-.735 1.6756h5.77c.125-.6869.138-1.1112.036-1.6756zm-6.41 4.3369c-.459 2.0019.4 3.4678 2.524 3.4678 1.664 0 2.589-.478 3.777-1.4659l1.775 2.3037c-1.908 1.5856-3.59 2.451-6.33 2.451-3.584 0-6.637-1.6749-5.198-7.9825 1.164-5.0839 4.497-7.9577 8.433-7.9577 4.224 0 5.89 3.1719 4.913 7.4457l-.396 1.7379z"/><path d="m169.253 65.3977c-2.388 0-4.483-.2699-5.954-2.2421l3.055-2.543c.96 1.2875 2.551 1.4673 3.717 1.4673 1.312 0 2.783-.4489 3.049-1.6182.177-.7761-.106-1.3114-1.272-1.4325l-2.339-.2416c-2.677-.2662-4.084-1.4964-3.43-4.3658.738-3.2278 3.905-4.9643 6.991-4.9643 2.358 0 4.244.4185 5.382 1.8257l-2.884 2.4205c-.689-.8059-1.975-1.0452-3.285-1.0452-1.516 0-2.323.718-2.499 1.4942-.131.5686-.047 1.2287 1.267 1.3455l2.335.2401c2.93.2995 4.07 1.9446 3.469 4.5762-.787 3.4366-4.017 5.0832-7.602 5.0832z"/></g><path d="m55.0791 3.46843c.5498-.39169 2.2246-1.44271 2.3458-2.634446h-11.8224c-2.3995 0-4.5893.904506-6.2554 2.397986h-.0022c-2.8237 2.82739-6.7123 8.22753-6.7123 16.50953 0 7.236 1.5914 11.8616 4.9418 17.9733 0 0 4.0684 6.9031 4.0293 12.526-.0051.6317-.0682 1.2592-.1756 1.8663-1.1707 3.993-4.1054 9.0305-9.2612 12.2583-.5461.3924-2.2239 1.4441-2.3443 2.6344h13.9818c2.3979 0 4.5892-.9045 6.2546-2.3965 2.3813-2.6497 5.567-7.4877 5.567-14.4148 0-8.8528-4.7938-14.9058-6.8654-18.1916-2.0716-3.2872-3.4562-7.5631-3.5476-12.4759-.0711-3.8987 2.8469-11.65409 9.8661-16.05257z" fill="#e5332c"/></svg>

<svg width="196" height="67" viewBox="0 0 196 67" fill="none" xmlns="http://www.w3.org/2000/svg">
<path d="M72.239 19.0873C71.9068 23.4466 67.9464 27.1299 63.5987 27.1299C61.6751 27.1299 59.9437 26.4053 58.7302 25.0938C57.5065 23.7744 56.9132 21.9741 57.0604 20.0324C57.3933 15.6702 61.3501 11.9869 65.7007 11.9869C67.6243 11.9869 69.3528 12.7086 70.5678 14.02C71.7921 15.3431 72.3862 17.1419 72.239 19.0873ZM196 4.18291H159.149L155.842 20.1448L149.398 4.18291H139.518V4.18509C137.702 4.21555 136.196 5.49796 135.798 7.21993L135.789 7.225L132.243 24.3446L128.226 4.18291H117.302C115.996 4.18291 114.84 4.8379 114.135 5.84105L114.131 5.84322L100.791 24.4251C100.79 24.4287 100.785 24.4287 100.781 24.4352C100.073 25.4311 98.9258 26.0781 97.6202 26.0781H90.1927L93.7563 8.79247L93.7439 8.78232C93.7788 8.56689 93.8027 8.34711 93.8027 8.12443C93.8027 5.9455 92.0604 4.18291 89.9076 4.18291H84.1723L81.4225 17.4647C81.0207 9.20664 74.4665 2.81201 65.9285 2.81201C56.6782 2.81201 48.6087 10.3084 47.8993 19.5602C47.1965 28.8076 54.1213 36.3062 63.3695 36.3062C70.3872 36.3062 76.7238 31.9868 79.6846 25.8671L78.8788 29.7353C78.7627 30.1154 78.6952 30.518 78.6952 30.9358C78.6952 33.1103 80.4375 34.8773 82.5889 34.8773H104.443C105.742 34.8773 106.887 34.2303 107.595 33.2453L107.602 33.2416L119.76 16.2214L121.153 23.3733C119.423 24.3707 116.254 28.1969 118.406 28.1969C120.574 28.1969 122.381 29.7506 122.798 31.8214L123.392 34.8773H140.617L144.073 18.1828L151.195 34.8773H160.187C162.092 34.8773 163.673 33.4904 164.011 31.6589L167.427 15.1726C167.813 13.4006 169.365 12.0812 171.23 12.0812H175.442L170.718 34.8773H178.152L178.154 34.8737C180.008 34.8526 181.55 33.5202 181.919 31.7496L181.924 31.7467L185.997 12.0812H191.199V12.0776C193.058 12.0776 194.612 10.7524 194.995 8.98469L195.005 8.97381L196 4.18291Z" fill="#27BCEE"/>
<path d="M26.3474 8.82799L26.3322 8.83742C25.9673 10.5151 24.4978 11.7736 22.7301 11.7758V11.778H15.7088L17.1181 4.95103H27.1533L26.3474 8.82799ZM21.7741 31.1338L21.7698 31.1374C21.4209 32.818 19.9557 34.0787 18.2004 34.1026L18.1953 34.1091H11.1304L15.3026 14.1723H25.3298L21.7741 31.1338ZM35.0269 39.2141L34.9819 39.1423C31.6228 33.0066 29.676 27.869 29.676 19.7422C29.676 13.1837 31.8368 8.23321 34.2442 4.75084C34.3574 4.56442 34.4792 4.37946 34.6265 4.18652C35.2024 3.43434 35.5201 2.6147 35.214 1.73921C35.111 1.44327 34.583 0.833984 33.8243 0.833984H15.9547C13.9955 0.833984 12.3773 2.30425 12.106 4.21118L0.0877987 62.2343C0.0275952 62.4976 3.05176e-05 62.7762 3.05176e-05 63.0569C3.05176e-05 65.2373 1.74303 67.0006 3.89368 67.0006C3.91108 67.0006 3.92777 66.9977 3.94445 66.9977V67.0006H19.5132C25.3885 67.0006 38.6485 59.1618 38.6485 50.2132C38.8465 46.3123 36.0431 40.9527 35.0269 39.2141Z" fill="#27BCEE"/>
<path d="M69.4401 50.2024L65.0496 57.9483H70.2039L69.4401 50.2024ZM70.8451 65.2177L70.4824 61.4474H63.1129L61 65.2177H56.7742L69.187 43.9224H72.3625L75.0731 65.2177H70.8451Z" fill="#5E636A"/>
<path d="M82.8101 47.6919C81.4958 47.6919 80.674 46.5858 80.9793 45.2403C81.2876 43.8955 82.6114 42.8169 83.9221 42.8169C85.2357 42.8169 86.0364 43.8955 85.7296 45.2403C85.4221 46.5858 84.1194 47.6919 82.8101 47.6919ZM76.9116 65.2191L80.4709 49.6337H84.2601L80.6979 65.2191H76.9116Z" fill="#5E636A"/>
<path d="M89.4286 65.3977C87.0422 65.3977 84.946 65.1278 83.4742 63.1556L86.5301 60.6126C87.4897 61.9001 89.0804 62.0799 90.2475 62.0799C91.5575 62.0799 93.027 61.631 93.2947 60.4617C93.4717 59.6856 93.1895 59.1503 92.0224 59.0292L89.6861 58.7876C87.0067 58.5214 85.5995 57.2912 86.2574 54.4218C86.9958 51.194 90.1576 49.4575 93.2446 49.4575C95.6071 49.4575 97.4915 49.876 98.6216 51.2832L95.7456 53.7037C95.0536 52.8978 93.7698 52.6585 92.4569 52.6585C90.9438 52.6585 90.1373 53.3765 89.9595 54.1527C89.8304 54.7213 89.9117 55.3814 91.2267 55.4982L93.5587 55.7383C96.4913 56.0378 97.6315 57.6829 97.0295 60.3145C96.2439 63.7511 93.014 65.3977 89.4286 65.3977Z" fill="#5E636A"/>
<path d="M102.923 65.2199C99.8074 65.2199 99.0109 62.9779 99.5136 60.7598L103.364 43.9224H107.146L103.358 60.5255C103.147 61.451 103.416 61.9283 104.376 61.9283H105.834L105.083 65.2199H102.923Z" fill="#5E636A"/>
<path d="M116.868 58.6396H113.866C112.499 58.6396 111.589 59.2961 111.334 60.4037C111.093 61.4794 111.627 62.1974 113.111 62.1974C114.16 62.1974 114.852 62.1082 115.672 61.4503C116.168 61.063 116.457 60.4341 116.675 59.476L116.868 58.6396ZM115.451 65.2192L115.757 63.8694C114.501 64.9226 113.435 65.3686 111.688 65.3686C109.969 65.3686 108.818 64.9226 108.125 63.9912C107.512 63.1252 107.357 61.8703 107.671 60.4943C108.241 58.0108 110.366 55.9791 113.892 55.9791H117.477L117.653 55.1993C118.042 53.4941 117.396 52.7469 115.387 52.7469C113.931 52.7469 113.179 53.1067 112.179 54.0337L110.316 51.6111C112.182 49.9362 113.749 49.4575 116.285 49.4575C120.541 49.4575 122.328 51.3122 121.497 54.9585L119.152 65.2192H115.451Z" fill="#5E636A"/>
<path d="M131.625 65.22L133.774 55.7956C134.264 53.6747 133.116 52.9566 131.921 52.9566C130.726 52.9566 129.22 53.6747 128.736 55.7956L126.582 65.22H122.796L126.354 49.6338H130.055L129.727 51.0714C130.963 49.9935 132.487 49.4575 133.884 49.4575C135.4 49.4575 136.506 49.9645 137.153 50.8335C138.091 52.0883 138.075 53.5564 137.686 55.2603L135.411 65.22H131.625Z" fill="#5E636A"/>
<path d="M143.801 65.2183C140.714 65.2183 139.913 62.9762 140.419 60.7581L142.181 53.0441H140.579L141.253 50.0825H142.857L143.912 45.478H147.701L146.645 50.0825H149.328L148.65 53.0441H145.966L144.262 60.5238C144.057 61.4189 144.347 61.9266 145.251 61.9266H146.621L145.871 65.2183H143.801Z" fill="#5E636A"/>
<path d="M159.674 54.3008C159.476 53.3746 158.788 52.6877 157.505 52.6877C156.223 52.6877 155.223 53.3746 154.603 54.3008C154.24 54.8652 154.055 55.2895 153.868 55.9764H159.638C159.763 55.2895 159.776 54.8652 159.674 54.3008ZM153.264 58.6377C152.805 60.6396 153.664 62.1055 155.788 62.1055C157.452 62.1055 158.377 61.6275 159.565 60.6396L161.34 62.9433C159.432 64.5289 157.75 65.3943 155.01 65.3943C151.426 65.3943 148.373 63.7194 149.812 57.4118C150.976 52.3279 154.309 49.4541 158.245 49.4541C162.469 49.4541 164.135 52.626 163.158 56.8998L162.762 58.6377H153.264Z" fill="#5E636A"/>
<path d="M169.253 65.3977C166.865 65.3977 164.77 65.1278 163.299 63.1556L166.354 60.6126C167.314 61.9001 168.905 62.0799 170.071 62.0799C171.383 62.0799 172.854 61.631 173.12 60.4617C173.297 59.6856 173.014 59.1503 171.848 59.0292L169.509 58.7876C166.832 58.5214 165.425 57.2912 166.079 54.4218C166.817 51.194 169.984 49.4575 173.07 49.4575C175.428 49.4575 177.314 49.876 178.452 51.2832L175.568 53.7037C174.879 52.8978 173.593 52.6585 172.283 52.6585C170.767 52.6585 169.96 53.3765 169.784 54.1527C169.653 54.7213 169.737 55.3814 171.051 55.4982L173.386 55.7383C176.316 56.0378 177.456 57.6829 176.855 60.3145C176.068 63.7511 172.838 65.3977 169.253 65.3977Z" fill="#5E636A"/>
<path d="M55.0791 3.46843C55.6289 3.07674 57.3037 2.02572 57.4249 0.833984H45.6025C43.203 0.833984 41.0132 1.73849 39.3471 3.23197H39.3449C36.5212 6.05936 32.6326 11.4595 32.6326 19.7415C32.6326 26.9775 34.224 31.6031 37.5744 37.7148C37.5744 37.7148 41.6428 44.6179 41.6037 50.2408C41.5986 50.8725 41.5355 51.5 41.4281 52.1071C40.2574 56.1001 37.3227 61.1376 32.1669 64.3654C31.6208 64.7578 29.943 65.8095 29.8226 66.9998H43.8044C46.2023 66.9998 48.3936 66.0953 50.059 64.6033C52.4403 61.9536 55.626 57.1156 55.626 50.1885C55.626 41.3357 50.8322 35.2827 48.7606 31.9969C46.689 28.7097 45.3044 24.4338 45.213 19.521C45.1419 15.6223 48.0599 7.86691 55.0791 3.46843Z" fill="#E5332C"/>
</svg>
